;FLAVOR:Marlin
;TIME:2007
;Filament used: 2.59115m
;Layer height: 0.28
;MINX:98.836
;MINY:93.586
;MINZ:0.336
;MAXX:136.164
;MAXY:141.415
;MAXZ:15.066
;Generated with Cura_SteamEngine 4.9.0
M140 S80
M105
M190 S80
M104 S230
M105
M109 S230
M82 ;absolute extrusion mode
; Ender 3 Custom Start G-code
G92 E0 ; Reset Extruder
G28 ; Home all axes
G1 Z2.0 F3000 ; Move Z Axis up little to prevent scratching of Heat Bed
G1 X0.1 Y20 Z0.3 F5000.0 ; Move to start position
G1 X0.1 Y200.0 Z0.3 F1500.0 E15 ; Draw the first line
G1 X0.4 Y200.0 Z0.3 F5000.0 ; Move to side a little
G1 X0.4 Y20 Z0.3 F1500.0 E30 ; Draw the second line
G92 E0 ; Reset Extruder
G1 Z2.0 F3000 ; Move Z Axis up little to prevent scratching of Heat Bed
G1 X5 Y20 Z0.3 F5000.0 ; Move over to prevent blob squish
G92 E0
G92 E0
G1 F2700 E-5
;LAYER_COUNT:50
;LAYER:-5
M107
G0 F9000 X101.911 Y97.146 Z0.336
;TYPE:SUPPORT-INTERFACE
G1 F2700 E0
G1 F1350 X102.207 Y96.851 E0.0467
G1 X102.301 Y96.763 E0.06109
G1 X102.796 Y96.323 E0.13511
G1 X102.899 Y96.236 E0.15017
G1 X103.209 Y95.993 E0.19419
G1 X103.304 Y95.928 E0.20706
G1 X103.609 Y95.701 E0.24954
G1 X103.935 Y95.46 E0.29485
G1 X104.217 Y95.289 E0.33171
G1 X104.616 Y95.081 E0.38199
G1 X104.811 Y94.997 E0.40572
G1 X105.148 Y94.878 E0.44566
G1 X105.447 Y94.793 E0.4804
G1 X105.702 Y94.738 E0.50955
G1 X106.026 Y94.691 E0.54614
G1 X106.49 Y94.656 E0.59814
G1 X106.65 Y94.65 E0.61603
G1 X128.37 Y94.65 E3.04333
G1 X128.496 Y94.654 E3.05742
G1 X128.873 Y94.678 E3.09964
G1 X129.168 Y94.715 E3.13286
G1 X129.44 Y94.767 E3.16381
G1 X129.754 Y94.852 E3.20016
G1 X130.186 Y95 E3.25119
G1 X130.402 Y95.09 E3.27734
G1 X130.739 Y95.261 E3.31958
G1 X130.985 Y95.407 E3.35155
G1 X131.22 Y95.568 E3.38338
G1 X131.343 Y95.668 E3.4011
G1 X131.915 Y96.084 E3.48014
G1 X132.182 Y96.304 E3.5188
G1 X132.69 Y96.754 E3.59464
G1 X132.781 Y96.84 E3.60863
G1 X133.125 Y97.184 E3.663
G1 X133.174 Y97.242 E3.67149
G1 X133.453 Y97.598 E3.72203
G1 X133.629 Y97.856 E3.75693
G1 X133.879 Y98.276 E3.81156
G1 X134.021 Y98.562 E3.84724
G1 X134.083 Y98.704 E3.86456
G1 X134.393 Y99.441 E3.95391
G1 X134.457 Y99.61 E3.9741
G1 X134.614 Y100.089 E4.03044
G1 X134.741 Y100.435 E4.07163
G1 X134.852 Y100.74 E4.1079
G1 X135.016 Y101.392 E4.18303
G1 X135.052 Y101.589 E4.20541
G1 X135.094 Y102.151 E4.26839
G1 X135.1 Y102.314 E4.28662
G1 X135.1 Y132.675 E7.67959
G1 X135.094 Y132.84 E7.69804
G1 X135.048 Y133.431 E7.76428
G1 X135.021 Y133.595 E7.78286
G1 X134.884 Y134.166 E7.84848
G1 X134.835 Y134.336 E7.86825
G1 X134.729 Y134.62 E7.90213
G1 X134.458 Y135.387 E7.99304
G1 X134.405 Y135.528 E8.00987
G1 X134.106 Y136.242 E8.09638
G1 X134.026 Y136.417 E8.11788
G1 X133.809 Y136.853 E8.17231
G1 X133.643 Y137.126 E8.20801
G1 X133.481 Y137.363 E8.2401
G1 X133.186 Y137.741 E8.29368
G1 X133.128 Y137.812 E8.30393
G1 X132.798 Y138.142 E8.35608
G1 X132.692 Y138.244 E8.37252
G1 X132.193 Y138.688 E8.44716
G1 X132.095 Y138.769 E8.46137
G1 X131.768 Y139.025 E8.50778
G1 X131.653 Y139.104 E8.52338
G1 X131.39 Y139.301 E8.5601
G1 X131.279 Y139.39 E8.576
G1 X131.065 Y139.54 E8.6052
G1 X130.789 Y139.708 E8.64131
G1 X130.384 Y139.919 E8.69235
G1 X130.189 Y140.003 E8.71607
G1 X129.852 Y140.122 E8.75601
G1 X129.553 Y140.207 E8.79075
G1 X129.298 Y140.262 E8.81991
G1 X128.974 Y140.309 E8.85649
G1 X128.51 Y140.344 E8.90849
G1 X128.35 Y140.35 E8.92639
G1 X106.63 Y140.35 E11.35368
G1 X106.504 Y140.346 E11.36777
G1 X106.127 Y140.322 E11.40999
G1 X105.832 Y140.285 E11.44322
G1 X105.56 Y140.233 E11.47416
G1 X105.246 Y140.148 E11.51052
G1 X104.814 Y140 E11.56155
G1 X104.598 Y139.91 E11.5877
G1 X104.261 Y139.739 E11.62993
G1 X104.015 Y139.593 E11.6619
G1 X103.757 Y139.415 E11.69693
G1 X103.763 Y139.409 E11.69788
G1 X103.077 Y138.91 E11.79268
G1 X102.812 Y138.691 E11.8311
G1 X102.289 Y138.226 E11.9093
G1 X102.238 Y138.178 E11.91713
G1 X101.876 Y137.816 E11.97434
G1 X101.825 Y137.755 E11.98323
G1 X101.539 Y137.39 E12.03505
G1 X101.379 Y137.156 E12.06673
G1 X101.111 Y136.703 E12.12555
G1 X100.944 Y136.361 E12.16808
G1 X100.603 Y135.548 E12.26661
G1 X100.538 Y135.373 E12.28747
G1 X100.411 Y134.986 E12.33299
G1 X100.302 Y134.686 E12.36866
G1 X100.196 Y134.418 E12.40087
G1 X100.138 Y134.237 E12.42211
G1 X99.983 Y133.636 E12.49147
G1 X99.97 Y133.535 E12.50285
G1 X99.909 Y132.871 E12.57737
G1 X99.9 Y132.657 E12.6013
G1 X99.9 Y102.335 E15.98991
G1 X99.909 Y102.129 E16.01295
G1 X99.963 Y101.502 E16.08328
G1 X100.004 Y101.283 E16.10818
G1 X100.163 Y100.691 E16.17668
G1 X100.258 Y100.422 E16.20856
G1 X100.408 Y100.021 E16.25641
G1 X100.539 Y99.623 E16.30324
G1 X100.605 Y99.448 E16.32414
G1 X100.917 Y98.703 E16.4144
G1 X100.963 Y98.599 E16.42711
G1 X101.124 Y98.264 E16.46865
G1 X101.151 Y98.215 E16.4749
G1 X101.353 Y97.877 E16.5189
G1 X101.517 Y97.641 E16.55102
G1 X101.805 Y97.27 E16.60351
G1 X101.911 Y97.146 E16.62174
G0 F9000 X102.4 Y96.675
G1 F1350 X102.4 Y138.324 E21.27618
G0 F9000 X104 Y139.582
G1 F1350 X104 Y95.42 E26.21146
G0 F9000 X105.6 Y94.76
G1 F1350 X105.6 Y140.24 E31.29404
G0 F9000 X107.2 Y140.35
G1 F1350 X107.2 Y94.65 E36.4012
G0 F9000 X108.8 Y94.65
G1 F1350 X108.8 Y140.35 E41.50836
G0 F9000 X110.4 Y140.35
G1 F1350 X110.4 Y94.65 E46.61552
G0 F9000 X112 Y94.65
G1 F1350 X112 Y140.35 E51.72268
G0 F9000 X113.6 Y140.35
G1 F1350 X113.6 Y94.65 E56.82984
G0 F9000 X115.2 Y94.65
G1 F1350 X115.2 Y140.35 E61.937
G0 F9000 X116.8 Y140.35
G1 F1350 X116.8 Y94.65 E67.04416
G0 F9000 X118.4 Y94.65
G1 F1350 X118.4 Y140.35 E72.15132
G0 F9000 X120 Y140.35
G1 F1350 X120 Y94.65 E77.25848
G0 F9000 X121.6 Y94.65
G1 F1350 X121.6 Y140.35 E82.36564
G0 F9000 X123.2 Y140.35
G1 F1350 X123.2 Y94.65 E87.4728
G0 F9000 X124.8 Y94.65
G1 F1350 X124.8 Y140.35 E92.57996
G0 F9000 X126.4 Y140.35
G1 F1350 X126.4 Y94.65 E97.68712
G0 F9000 X128 Y94.65
G1 F1350 X128 Y140.35 E102.79428
G0 F9000 X129.6 Y140.194
G1 F1350 X129.6 Y94.811 E107.86602
G0 F9000 X131.2 Y95.555
G1 F1350 X131.2 Y139.446 E112.77101
G0 F9000 X132.8 Y138.14
G1 F1350 X132.8 Y96.859 E117.38433
G0 F9000 X134.4 Y99.46
G1 F1350 X134.4 Y135.54 E121.41642
G1 F2700 E116.41642
G0 F9000 X135.382 Y135.95
G0 X134.644 Y137.535
G0 X133.853 Y138.592
G0 X132.409 Y139.875
G0 X131.311 Y140.636
G0 X130.169 Y141.139
G0 X129.089 Y141.368
G0 X128.376 Y141.414
G0 X106.025 Y141.382
G0 X104.933 Y141.166
G0 X103.752 Y140.675
G0 X102.147 Y139.539
G0 X101.001 Y138.43
G0 X100.474 Y137.717
G0 X100.327 Y137.443
G0 X99.82 Y136.43
G0 X100.8 Y136.017
G1 F2700 E121.41642
G1 F1350 X100.8 Y98.982 E125.55523
G1 F2700 E120.55523
G0 F300 X100.8 Y98.982 Z0.636
G0 F9000 X99.941 Y98.279
G0 X100.536 Y97.182
G0 X101.145 Y96.408
G0 X102.582 Y95.132
G0 X103.689 Y94.364
G0 X104.831 Y93.861
G0 X105.911 Y93.632
G0 X106.624 Y93.586
G0 X128.975 Y93.618
G0 X130.067 Y93.834
G0 X131.129 Y94.275
G0 X132.048 Y94.864
G0 X131.659 Y96.021
;TIME_ELAPSED:59.109707
;LAYER:-4
;TYPE:SUPPORT
G1 F2700 E125.55523
G1 F1350 X131.214 Y95.699 E125.62374
G1 X131.217 Y95.693 E125.62458
G1 X131.166 Y95.652 E125.63274
G1 X130.929 Y95.49 E125.66854
G1 X130.686 Y95.346 E125.70377
G1 X130.344 Y95.173 E125.75158
G1 X130.293 Y95.148 E125.75866
G1 X130.149 Y95.092 E125.77793
G1 X129.727 Y94.947 E125.83359
G1 X129.408 Y94.863 E125.87473
G1 X129.152 Y94.813 E125.90726
G1 X128.868 Y94.778 E125.94295
G1 X128.709 Y94.768 E125.96282
G1 X134.77 Y100.829 E127.03191
G1 X134.918 Y101.423 E127.10827
G1 X134.946 Y101.555 E127.1251
G1 X134.951 Y101.595 E127.13012
G1 X134.993 Y102.153 E127.19992
G1 X134.999 Y102.316 E127.22026
G1 X134.999 Y102.755 E127.27502
G1 X126.994 Y94.75 E128.68701
G1 X125.297 Y94.75 E128.89867
G1 X134.999 Y104.452 E130.60999
G1 X134.999 Y106.149 E130.82165
G1 X123.6 Y94.75 E132.8323
G1 X121.903 Y94.75 E133.04396
G1 X134.999 Y107.846 E135.35394
G1 X134.999 Y109.543 E135.5656
G1 X120.206 Y94.75 E138.17492
G1 X118.508 Y94.75 E138.3867
G1 X134.999 Y111.24 E141.29543
G1 X134.999 Y112.937 E141.50709
G1 X116.811 Y94.75 E144.71516
G1 X115.114 Y94.75 E144.92682
G1 X134.999 Y114.634 E148.43422
G1 X134.999 Y116.331 E148.64588
G1 X113.417 Y94.75 E152.4526
G1 X111.72 Y94.75 E152.66426
G1 X134.999 Y118.028 E156.77032
G1 X134.999 Y119.725 E156.98198
G1 X110.023 Y94.75 E161.38737
G1 X108.326 Y94.75 E161.59903
G1 X134.999 Y121.422 E166.30375
G1 X134.999 Y123.12 E166.51554
G1 X106.63 Y94.751 E171.5195
G1 X106.502 Y94.755 E171.53548
G1 X106.031 Y94.791 E171.59439
G1 X105.722 Y94.835 E171.63332
G1 X105.463 Y94.892 E171.6664
G1 X105.175 Y94.974 E171.70375
G1 X105.161 Y94.979 E171.7056
G1 X134.999 Y124.817 E176.96868
G1 X134.999 Y126.514 E177.18034
G1 X104.013 Y95.528 E182.64592
G1 X103.999 Y95.536 E182.64793
G1 X103.788 Y95.686 E182.68022
G1 X103.669 Y95.779 E182.69905
G1 X103.361 Y96.008 E182.74692
G1 X103.272 Y96.068 E182.76031
G1 X103.04 Y96.252 E182.79724
G1 X134.999 Y128.211 E188.43444
G1 X134.999 Y129.908 E188.6461
G1 X102.145 Y97.053 E194.44126
G1 X101.954 Y97.244 E194.47495
G1 X101.891 Y97.319 E194.48717
G1 X101.587 Y97.712 E194.54914
G1 X101.504 Y97.826 E194.56672
G1 X101.436 Y97.93 E194.58222
G1 X101.394 Y98 E194.5924
G1 X134.999 Y131.605 E200.51994
G1 X134.998 Y132.67 E200.65277
G1 X134.992 Y132.852 E200.67548
G1 X134.96 Y133.263 E200.7269
G1 X100.839 Y99.142 E206.74545
G1 X100.703 Y99.468 E206.78951
G1 X100.626 Y99.674 E206.81694
G1 X100.502 Y100.054 E206.8668
G1 X100.38 Y100.38 E206.91021
G1 X134.622 Y134.622 E212.95011
G1 X134.367 Y135.343 E213.04549
G1 X134.306 Y135.504 E213.06697
G1 X134.159 Y135.856 E213.11454
G1 X100.042 Y101.739 E219.13239
G1 X100.008 Y102.133 E219.18171
G1 X99.999 Y102.338 E219.20731
G1 X99.999 Y103.393 E219.33889
G1 X133.605 Y136.999 E225.26661
G1 X133.56 Y137.07 E225.27709
G1 X133.472 Y137.204 E225.29708
G1 X133.394 Y137.311 E225.3136
G1 X133.108 Y137.676 E225.37144
G1 X133.054 Y137.741 E225.38198
G1 X132.853 Y137.944 E225.41761
G1 X99.999 Y105.09 E231.21267
G1 X99.999 Y106.787 E231.42433
G1 X131.958 Y138.747 E237.06162
G1 X131.717 Y138.935 E237.09974
G1 X131.594 Y139.022 E237.11854
G1 X131.328 Y139.221 E237.15997
G1 X131.222 Y139.305 E237.17684
G1 X131 Y139.462 E237.21075
G1 X130.985 Y139.471 E237.21293
G1 X99.999 Y108.485 E242.67851
G1 X99.999 Y110.182 E242.89017
G1 X129.837 Y140.019 E248.15316
G1 X129.824 Y140.024 E248.1549
G1 X129.536 Y140.107 E248.19228
G1 X129.276 Y140.163 E248.22545
G1 X128.967 Y140.207 E248.26438
G1 X128.496 Y140.243 E248.3233
G1 X128.368 Y140.247 E248.33927
G1 X99.999 Y111.879 E253.34315
G1 X99.999 Y113.576 E253.55481
G1 X126.672 Y140.248 E258.25953
G1 X124.975 Y140.248 E258.47119
G1 X99.999 Y115.273 E262.87658
G1 X99.999 Y116.97 E263.08824
G1 X123.278 Y140.248 E267.1943
G1 X121.581 Y140.248 E267.40596
G1 X99.999 Y118.667 E271.21269
G1 X99.999 Y120.364 E271.42434
G1 X119.884 Y140.248 E274.93174
G1 X118.187 Y140.248 E275.1434
G1 X99.999 Y122.061 E278.35147
G1 X99.999 Y123.758 E278.56313
G1 X116.49 Y140.248 E281.47186
G1 X114.793 Y140.248 E281.68352
G1 X99.999 Y125.455 E284.29292
G1 X99.999 Y127.152 E284.50458
G1 X113.096 Y140.248 E286.81465
G1 X111.399 Y140.248 E287.02631
G1 X99.999 Y128.849 E289.03705
G1 X99.999 Y130.546 E289.24871
G1 X109.701 Y140.248 E290.96003
G1 X108.004 Y140.248 E291.17169
G1 X99.999 Y132.243 E292.58368
G1 X99.999 Y132.652 E292.6347
G1 X100.007 Y132.851 E292.65954
G1 X100.067 Y133.508 E292.74182
G1 X100.082 Y133.619 E292.75579
G1 X100.095 Y133.672 E292.7626
G1 X100.221 Y134.162 E292.8257
G1 X106.289 Y140.23 E293.89603
G1 X106.131 Y140.22 E293.91577
G1 X105.846 Y140.185 E293.95159
G1 X105.59 Y140.135 E293.98412
G1 X105.271 Y140.051 E294.02527
G1 X104.846 Y139.905 E294.08131
G1 X104.705 Y139.85 E294.10019
G1 X104.652 Y139.825 E294.1075
G1 X104.312 Y139.652 E294.15508
G1 X104.067 Y139.507 E294.19059
G1 X103.912 Y139.4 E294.21408
G1 X103.916 Y139.396 E294.21479
G1 X103.335 Y138.974 E294.30435
G1 X103.149 Y138.839 E294.33302
G1 X102.951 Y138.677 E294.36492
G1 X102.876 Y138.614 E294.37714
G1 X102.355 Y138.15 E294.46416
G1 X101.946 Y137.744 E294.53604
G1 X101.9 Y137.691 E294.54479
G1 X101.625 Y137.337 E294.6007
G1 X101.539 Y137.221 E294.61871
G0 F9000 X101.462 Y137.1
G1 F1350 X103.335 Y138.974 E294.94917
G1 F2700 E289.94917
G0 F9000 X102.654 Y139.921
G0 X102.115 Y139.496
G0 X101.001 Y138.43
G0 X100.474 Y137.717
G0 X99.953 Y136.747
G0 X99.115 Y134.532
G0 X98.912 Y133.649
G0 X98.836 Y132.687
G0 X98.846 Y102.069
G0 X98.968 Y101.039
G0 X99.532 Y99.278
G0 X100.233 Y97.678
G0 X100.98 Y96.596
G0 X102.233 Y95.405
G0 X103.689 Y94.364
G0 X104.831 Y93.861
G0 X105.911 Y93.632
G0 X106.624 Y93.586
G0 X128.975 Y93.618
G0 X130.067 Y93.834
G0 X131.248 Y94.325
G0 X132.336 Y95.069
G0 X131.659 Y96.021
G1 F2700 E294.94917
G1 F1350 X131.853 Y96.161 E294.97901
G1 X132.109 Y96.373 E295.02047
G1 X132.631 Y96.837 E295.10758
G1 X132.709 Y96.911 E295.12099
G1 X133.066 Y97.268 E295.18396
G1 X133.365 Y97.649 E295.24437
G1 X133.461 Y97.779 E295.26452
G1 X133.535 Y97.896 E295.28179
G0 F9000 X133.537 Y97.899
G1 F1350 X131.659 Y96.021 E295.61305
G0 F300 X131.659 Y96.021 Z0.916
G0 F9000 X131.03 Y95.2
;TIME_ELAPSED:123.247258
;LAYER:-3
;TYPE:SUPPORT-INTERFACE
G1 F1575 X103.978 Y95.2 E296.8727
G1 X103.834 Y95.287 E296.88054
G1 X103.604 Y95.449 E296.89364
G1 X103.487 Y95.543 E296.90062
G1 X103.187 Y95.765 E296.918
G1 X103.088 Y95.833 E296.92359
G1 X102.876 Y96 E296.93616
G1 X132.132 Y96 E298.29844
G1 X132.228 Y96.079 E298.30423
G1 X132.831 Y96.612 E298.34171
G1 X132.927 Y96.701 E298.3478
G1 X133.026 Y96.8 E298.35432
G1 X101.976 Y96.8 E299.80014
G1 X101.731 Y97.045 E299.81627
G1 X101.656 Y97.136 E299.82176
G1 X101.351 Y97.529 E299.84493
G1 X101.3 Y97.6 E299.849
G1 X133.705 Y97.6 E301.35791
G1 X133.71 Y97.608 E301.35835
G1 X133.795 Y97.742 E301.36574
G1 X134.055 Y98.18 E301.38946
G1 X134.126 Y98.313 E301.39648
G1 X134.167 Y98.4 E301.40096
G1 X100.837 Y98.4 E302.95294
G1 X100.778 Y98.523 E302.95929
G1 X100.734 Y98.622 E302.96434
G1 X100.492 Y99.2 E302.99352
G1 X134.51 Y99.2 E304.57754
G1 X134.575 Y99.356 E304.58541
G1 X134.647 Y99.546 E304.59487
G1 X134.796 Y100 E304.61712
G1 X100.203 Y100 E306.22791
G1 X100.072 Y100.348 E306.24523
G1 X100.029 Y100.45 E306.25038
G1 X99.972 Y100.631 E306.25922
G1 X99.927 Y100.8 E306.26736
G1 X135.074 Y100.8 E307.90395
G1 X135.212 Y101.351 E307.9304
G1 X135.244 Y101.507 E307.93782
G1 X135.253 Y101.58 E307.94124
G1 X135.255 Y101.6 E307.94218
G1 X99.755 Y101.6 E309.59521
G1 X99.709 Y102.121 E309.61956
G1 X99.7 Y102.327 E309.62916
G1 X99.7 Y102.4 E309.63256
G1 X135.3 Y102.4 E311.29025
G1 X135.3 Y103.2 E311.3275
G1 X99.7 Y103.2 E312.98518
G1 X99.7 Y104 E313.02243
G1 X135.3 Y104 E314.68012
G1 X135.3 Y104.8 E314.71737
G1 X99.7 Y104.8 E316.37506
G1 X99.7 Y105.6 E316.41231
G1 X135.3 Y105.6 E318.06999
G1 X135.3 Y106.4 E318.10724
G1 X99.7 Y106.4 E319.76493
G1 X99.7 Y107.2 E319.80218
G1 X135.3 Y107.2 E321.45986
G1 X135.3 Y108 E321.49712
G1 X99.7 Y108 E323.1548
G1 X99.7 Y108.8 E323.19205
G1 X135.3 Y108.8 E324.84974
G1 X135.3 Y109.6 E324.88699
G1 X99.7 Y109.6 E326.54467
G1 X99.7 Y110.4 E326.58193
G1 X135.3 Y110.4 E328.23961
G1 X135.3 Y111.2 E328.27686
G1 X99.7 Y111.2 E329.93455
G1 X99.7 Y112 E329.9718
G1 X135.3 Y112 E331.62948
G1 X135.3 Y112.8 E331.66673
G1 X99.7 Y112.8 E333.32442
G1 X99.7 Y113.6 E333.36167
G1 X135.3 Y113.6 E335.01936
G1 X135.3 Y114.4 E335.05661
G1 X99.7 Y114.4 E336.71429
G1 X99.7 Y115.2 E336.75154
G1 X135.3 Y115.2 E338.40923
G1 X135.3 Y116 E338.44648
G1 X99.7 Y116 E340.10417
G1 X99.7 Y116.8 E340.14142
G1 X135.3 Y116.8 E341.7991
G1 X135.3 Y117.6 E341.83635
G1 X99.7 Y117.6 E343.49404
G1 X99.7 Y118.4 E343.53129
G1 X135.3 Y118.4 E345.18898
G1 X135.3 Y119.2 E345.22623
G1 X99.699 Y119.2 E346.88396
G1 X99.699 Y120 E346.92121
G1 X135.3 Y120 E348.57894
G1 X135.3 Y120.8 E348.61619
G1 X99.699 Y120.8 E350.27392
G1 X99.699 Y121.6 E350.31118
G1 X135.3 Y121.6 E351.96891
G1 X135.3 Y122.4 E352.00616
G1 X99.699 Y122.4 E353.66389
G1 X99.699 Y123.2 E353.70114
G1 X135.3 Y123.2 E355.35887
G1 X135.3 Y124 E355.39612
G1 X99.699 Y124 E357.05386
G1 X99.699 Y124.8 E357.09111
G1 X135.3 Y124.8 E358.74884
G1 X135.3 Y125.6 E358.78609
G1 X99.699 Y125.6 E360.44382
G1 X99.699 Y126.4 E360.48107
G1 X135.3 Y126.4 E362.13881
G1 X135.3 Y127.2 E362.17606
G1 X99.699 Y127.2 E363.83379
G1 X99.699 Y128 E363.87104
